X:126
T:Periwig, The
T:A' Phiorbhuic
R:Pipe Reel
S:Simon Fraser Collection
N:No.74
O:Scottish
M:C
L:1/8
K:G
B|:g3b agfa|gfeg dB B2|g3b agfa|gef^d e/e/e g2|g3b agfa|gfeg dBBd|
gfgb agfa|gef^d e/e/e g2:|
|:dB B/B/B dBBg|eBBA GEEg|dB B/B/B dBBa|gef^d e/e/e g2|
dB B/B/B dBBg|eBBA GEEF|dB B/B/B dBBa|gef^d e/e/e g2:||

